bernoullicharts/1_-_log_1_x_alt_series__bits.svg

<?xml version="1.0" encoding="utf-8" standalone="no"?>
<!DOCTYPE svg PUBLIC "-//W3C//DTD SVG 1.1//EN"
  "http://www.w3.org/Graphics/SVG/1.1/DTD/svg11.dtd">
<!-- Created with matplotlib (https://matplotlib.org/) -->
<svg height="345.6pt" version="1.1" viewBox="0 0 460.8 345.6" width="460.8pt" xmlns="http://www.w3.org/2000/svg" xmlns:xlink="http://www.w3.org/1999/xlink">
 <defs>
  <style type="text/css">
*{stroke-linecap:butt;stroke-linejoin:round;}
  </style>
 </defs>
 <g id="figure_1">
  <g id="patch_1">
   <path d="M 0 345.6 
L 460.8 345.6 
L 460.8 0 
L 0 0 
z
" style="fill:#ffffff;"/>
  </g>
  <g id="axes_1">
   <g id="patch_2">
    <path d="M 57.6 307.584 
L 414.72 307.584 
L 414.72 41.472 
L 57.6 41.472 
z
" style="fill:#ffffff;"/>
   </g>
   <g id="matplotlib.axis_1">
    <g id="xtick_1">
     <g id="line2d_1">
      <defs>
       <path d="M 0 0 
L 0 3.5 
" id="m40d37ec204" style="stroke:#000000;stroke-width:0.8;"/>
      </defs>
      <g>
       <use style="stroke:#000000;stroke-width:0.8;" x="73.800255" xlink:href="#m40d37ec204" y="307.584"/>
      </g>
     </g>
     <g id="text_1">
      <text style="font-family:DejaVu Sans;font-size:10px;font-style:normal;font-weight:normal;text-anchor:middle;" transform="rotate(-0, 73.800255, 322.182437)" x="73.800255" y="322.182437">0.0</text>
     </g>
    </g>
    <g id="xtick_2">
     <g id="line2d_2">
      <g>
       <use style="stroke:#000000;stroke-width:0.8;" x="138.744153" xlink:href="#m40d37ec204" y="307.584"/>
      </g>
     </g>
     <g id="text_2">
      <text style="font-family:DejaVu Sans;font-size:10px;font-style:normal;font-weight:normal;text-anchor:middle;" transform="rotate(-0, 138.744153, 322.182437)" x="138.744153" y="322.182437">0.2</text>
     </g>
    </g>
    <g id="xtick_3">
     <g id="line2d_3">
      <g>
       <use style="stroke:#000000;stroke-width:0.8;" x="203.688051" xlink:href="#m40d37ec204" y="307.584"/>
      </g>
     </g>
     <g id="text_3">
      <text style="font-family:DejaVu Sans;font-size:10px;font-style:normal;font-weight:normal;text-anchor:middle;" transform="rotate(-0, 203.688051, 322.182437)" x="203.688051" y="322.182437">0.4</text>
     </g>
    </g>
    <g id="xtick_4">
     <g id="line2d_4">
      <g>
       <use style="stroke:#000000;stroke-width:0.8;" x="268.631949" xlink:href="#m40d37ec204" y="307.584"/>
      </g>
     </g>
     <g id="text_4">
      <text style="font-family:DejaVu Sans;font-size:10px;font-style:normal;font-weight:normal;text-anchor:middle;" transform="rotate(-0, 268.631949, 322.182437)" x="268.631949" y="322.182437">0.6</text>
     </g>
    </g>
    <g id="xtick_5">
     <g id="line2d_5">
      <g>
       <use style="stroke:#000000;stroke-width:0.8;" x="333.575847" xlink:href="#m40d37ec204" y="307.584"/>
      </g>
     </g>
     <g id="text_5">
      <text style="font-family:DejaVu Sans;font-size:10px;font-style:normal;font-weight:normal;text-anchor:middle;" transform="rotate(-0, 333.575847, 322.182437)" x="333.575847" y="322.182437">0.8</text>
     </g>
    </g>
    <g id="xtick_6">
     <g id="line2d_6">
      <g>
       <use style="stroke:#000000;stroke-width:0.8;" x="398.519745" xlink:href="#m40d37ec204" y="307.584"/>
      </g>
     </g>
     <g id="text_6">
      <text style="font-family:DejaVu Sans;font-size:10px;font-style:normal;font-weight:normal;text-anchor:middle;" transform="rotate(-0, 398.519745, 322.182437)" x="398.519745" y="322.182437">1.0</text>
     </g>
    </g>
    <g id="text_7">
     <text style="font-family:DejaVu Sans;font-size:10px;font-style:normal;font-weight:normal;text-anchor:middle;" transform="rotate(-0, 236.16, 335.860562)" x="236.16" y="335.860562">Probability</text>
    </g>
   </g>
   <g id="matplotlib.axis_2">
    <g id="ytick_1">
     <g id="line2d_7">
      <defs>
       <path d="M 0 0 
L -3.5 0 
" id="md97aa09fba" style="stroke:#000000;stroke-width:0.8;"/>
      </defs>
      <g>
       <use style="stroke:#000000;stroke-width:0.8;" x="57.6" xlink:href="#md97aa09fba" y="289.345219"/>
      </g>
     </g>
     <g id="text_8">
      <text style="font-family:DejaVu Sans;font-size:10px;font-style:normal;font-weight:normal;text-anchor:end;" transform="rotate(-0, 50.6, 293.144438)" x="50.6" y="293.144438">2.5</text>
     </g>
    </g>
    <g id="ytick_2">
     <g id="line2d_8">
      <g>
       <use style="stroke:#000000;stroke-width:0.8;" x="57.6" xlink:href="#md97aa09fba" y="259.35117"/>
      </g>
     </g>
     <g id="text_9">
      <text style="font-family:DejaVu Sans;font-size:10px;font-style:normal;font-weight:normal;text-anchor:end;" transform="rotate(-0, 50.6, 263.150389)" x="50.6" y="263.150389">5.0</text>
     </g>
    </g>
    <g id="ytick_3">
     <g id="line2d_9">
      <g>
       <use style="stroke:#000000;stroke-width:0.8;" x="57.6" xlink:href="#md97aa09fba" y="229.357121"/>
      </g>
     </g>
     <g id="text_10">
      <text style="font-family:DejaVu Sans;font-size:10px;font-style:normal;font-weight:normal;text-anchor:end;" transform="rotate(-0, 50.6, 233.15634)" x="50.6" y="233.15634">7.5</text>
     </g>
    </g>
    <g id="ytick_4">
     <g id="line2d_10">
      <g>
       <use style="stroke:#000000;stroke-width:0.8;" x="57.6" xlink:href="#md97aa09fba" y="199.363072"/>
      </g>
     </g>
     <g id="text_11">
      <text style="font-family:DejaVu Sans;font-size:10px;font-style:normal;font-weight:normal;text-anchor:end;" transform="rotate(-0, 50.6, 203.162291)" x="50.6" y="203.162291">10.0</text>
     </g>
    </g>
    <g id="ytick_5">
     <g id="line2d_11">
      <g>
       <use style="stroke:#000000;stroke-width:0.8;" x="57.6" xlink:href="#md97aa09fba" y="169.369024"/>
      </g>
     </g>
     <g id="text_12">
      <text style="font-family:DejaVu Sans;font-size:10px;font-style:normal;font-weight:normal;text-anchor:end;" transform="rotate(-0, 50.6, 173.168242)" x="50.6" y="173.168242">12.5</text>
     </g>
    </g>
    <g id="ytick_6">
     <g id="line2d_12">
      <g>
       <use style="stroke:#000000;stroke-width:0.8;" x="57.6" xlink:href="#md97aa09fba" y="139.374975"/>
      </g>
     </g>
     <g id="text_13">
      <text style="font-family:DejaVu Sans;font-size:10px;font-style:normal;font-weight:normal;text-anchor:end;" transform="rotate(-0, 50.6, 143.174194)" x="50.6" y="143.174194">15.0</text>
     </g>
    </g>
    <g id="ytick_7">
     <g id="line2d_13">
      <g>
       <use style="stroke:#000000;stroke-width:0.8;" x="57.6" xlink:href="#md97aa09fba" y="109.380926"/>
      </g>
     </g>
     <g id="text_14">
      <text style="font-family:DejaVu Sans;font-size:10px;font-style:normal;font-weight:normal;text-anchor:end;" transform="rotate(-0, 50.6, 113.180145)" x="50.6" y="113.180145">17.5</text>
     </g>
    </g>
    <g id="ytick_8">
     <g id="line2d_14">
      <g>
       <use style="stroke:#000000;stroke-width:0.8;" x="57.6" xlink:href="#md97aa09fba" y="79.386877"/>
      </g>
     </g>
     <g id="text_15">
      <text style="font-family:DejaVu Sans;font-size:10px;font-style:normal;font-weight:normal;text-anchor:end;" transform="rotate(-0, 50.6, 83.186096)" x="50.6" y="83.186096">20.0</text>
     </g>
    </g>
    <g id="ytick_9">
     <g id="line2d_15">
      <g>
       <use style="stroke:#000000;stroke-width:0.8;" x="57.6" xlink:href="#md97aa09fba" y="49.392828"/>
      </g>
     </g>
     <g id="text_16">
      <text style="font-family:DejaVu Sans;font-size:10px;font-style:normal;font-weight:normal;text-anchor:end;" transform="rotate(-0, 50.6, 53.192047)" x="50.6" y="53.192047">22.5</text>
     </g>
    </g>
    <g id="text_17">
     <text style="font-family:DejaVu Sans;font-size:10px;font-style:normal;font-weight:normal;text-anchor:middle;" transform="rotate(-90, 22.254687, 174.528)" x="22.254687" y="174.528">Average Bits Consumed Per Call</text>
    </g>
   </g>
   <g id="line2d_16">
    <path clip-path="url(#p37ec78ef36)" d="M 73.832727 295.488 
L 77.112066 293.232448 
L 80.391405 294.768143 
L 83.670744 295.03209 
L 86.950083 294.816133 
L 90.229421 292.4646 
L 93.50876 294.120271 
L 96.788099 293.832329 
L 100.067438 292.944505 
L 103.346777 292.032686 
L 106.626116 292.824528 
L 109.905455 291.816728 
L 113.184793 291.816728 
L 116.464132 288.745338 
L 119.743471 292.656562 
L 123.02281 292.560581 
L 126.302149 288.769333 
L 129.581488 290.089071 
L 132.860826 287.137657 
L 136.140165 290.305028 
L 139.419504 288.313424 
L 142.698843 289.633162 
L 145.978182 281.93069 
L 149.257521 289.225243 
L 152.53686 286.96969 
L 155.816198 286.729738 
L 159.095537 287.065671 
L 162.374876 286.777728 
L 165.654215 284.162247 
L 168.933554 284.426195 
L 172.212893 284.498181 
L 175.492231 282.746528 
L 178.77157 282.602557 
L 182.050909 283.610357 
L 185.330248 280.874899 
L 188.609587 281.498776 
L 191.888926 276.915685 
L 195.168264 280.490976 
L 198.447603 280.778918 
L 201.726942 276.099847 
L 205.006281 277.035661 
L 208.28562 275.667933 
L 211.564959 276.89169 
L 214.844298 271.780704 
L 218.123636 275.715923 
L 221.402975 275.092047 
L 224.682314 273.388385 
L 227.961653 276.051856 
L 231.240992 272.716518 
L 234.520331 267.293594 
L 237.799669 270.269004 
L 241.079008 270.125032 
L 244.358347 269.165223 
L 247.637686 270.556947 
L 250.917025 266.453761 
L 254.196364 267.605532 
L 257.475702 265.757899 
L 260.755041 264.366175 
L 264.03438 263.670313 
L 267.313719 258.415356 
L 270.593058 264.126223 
L 273.872397 261.82268 
L 277.151736 257.311575 
L 280.431074 259.663108 
L 283.710413 255.463941 
L 286.989752 255.295975 
L 290.269091 253.112408 
L 293.54843 253.904251 
L 296.827769 252.29657 
L 300.107107 248.505322 
L 303.386446 247.209579 
L 306.665785 246.513717 
L 309.945124 245.697879 
L 313.224463 243.754265 
L 316.503802 245.313955 
L 319.78314 240.082993 
L 323.062479 238.019402 
L 326.341818 234.276145 
L 329.621157 233.676264 
L 332.900496 231.708655 
L 336.179835 228.613269 
L 339.459174 230.340926 
L 342.738512 223.142354 
L 346.017851 222.20654 
L 349.29719 219.639049 
L 352.576529 220.862807 
L 355.855868 213.784211 
L 359.135207 212.872392 
L 362.414545 207.857387 
L 365.693884 203.466258 
L 368.973223 199.770991 
L 372.252562 203.634225 
L 375.531901 193.508234 
L 378.81124 178.51121 
L 382.090579 174.504005 
L 385.369917 183.070305 
L 388.649256 158.787123 
L 391.928595 150.100847 
L 395.207934 149.524961 
L 398.487273 53.568 
" style="fill:none;stroke:#1f77b4;stroke-linecap:square;stroke-width:1.5;"/>
   </g>
   <g id="patch_3">
    <path d="M 57.6 307.584 
L 57.6 41.472 
" style="fill:none;stroke:#000000;stroke-linecap:square;stroke-linejoin:miter;stroke-width:0.8;"/>
   </g>
   <g id="patch_4">
    <path d="M 414.72 307.584 
L 414.72 41.472 
" style="fill:none;stroke:#000000;stroke-linecap:square;stroke-linejoin:miter;stroke-width:0.8;"/>
   </g>
   <g id="patch_5">
    <path d="M 57.6 307.584 
L 414.72 307.584 
" style="fill:none;stroke:#000000;stroke-linecap:square;stroke-linejoin:miter;stroke-width:0.8;"/>
   </g>
   <g id="patch_6">
    <path d="M 57.6 41.472 
L 414.72 41.472 
" style="fill:none;stroke:#000000;stroke-linecap:square;stroke-linejoin:miter;stroke-width:0.8;"/>
   </g>
   <g id="text_18">
    <text style="font-family:DejaVu Sans;font-size:12px;font-style:normal;font-weight:normal;text-anchor:middle;" transform="rotate(-0, 236.16, 35.472)" x="236.16" y="35.472">Avg. Bits Consumed by 1 - log(1+x) (Alt. Series) Algorithm</text>
   </g>
   <g id="legend_1">
    <g id="patch_7">
     <path d="M 64.6 64.150125 
L 218.265625 64.150125 
Q 220.265625 64.150125 220.265625 62.150125 
L 220.265625 48.472 
Q 220.265625 46.472 218.265625 46.472 
L 64.6 46.472 
Q 62.6 46.472 62.6 48.472 
L 62.6 62.150125 
Q 62.6 64.150125 64.6 64.150125 
z
" style="fill:#ffffff;opacity:0.8;stroke:#cccccc;stroke-linejoin:miter;"/>
    </g>
    <g id="line2d_17">
     <path d="M 66.6 54.570438 
L 86.6 54.570438 
" style="fill:none;stroke:#1f77b4;stroke-linecap:square;stroke-width:1.5;"/>
    </g>
    <g id="line2d_18"/>
    <g id="text_19">
     <text style="font-family:DejaVu Sans;font-size:10px;font-style:normal;font-weight:normal;text-anchor:start;" transform="rotate(-0, 94.6, 58.070438)" x="94.6" y="58.070438">1 - log(1+x) (Alt. Series)</text>
    </g>
   </g>
  </g>
 </g>
 <defs>
  <clipPath id="p37ec78ef36">
   <rect height="266.112" width="357.12" x="57.6" y="41.472"/>
  </clipPath>
 </defs>
</svg>

<svg height="460.8" viewBox="0 0 460.8 345.6" width="614.4" xmlns="http://www.w3.org/2000/svg" xmlns:xlink="http://www.w3.org/1999/xlink"><defs><style>*{stroke-linecap:butt;stroke-linejoin:round}</style></defs><g id="figure_1"><path d="M0 345.6h460.8V0H0z" fill="#fff" id="patch_1"/><g id="axes_1"><path d="M57.6 307.584h357.12V41.472H57.6z" fill="#fff" id="patch_2"/><g id="matplotlib.axis_1"><g id="xtick_1"><g id="line2d_1"><defs><path d="M0 0v3.5" id="m40d37ec204" stroke="#000" stroke-width=".8"/></defs><use x="73.8" xlink:href="#m40d37ec204" y="307.584" stroke="#000" stroke-width=".8"/></g><text x="73.8" y="322.182" font-family="DejaVu Sans" font-size="10" font-weight="400" text-anchor="middle" id="text_1">0.0</text></g><g id="xtick_2"><use x="138.744" xlink:href="#m40d37ec204" y="307.584" stroke="#000" stroke-width=".8" id="line2d_2"/><text x="138.744" y="322.182" font-family="DejaVu Sans" font-size="10" font-weight="400" text-anchor="middle" id="text_2">0.2</text></g><g id="xtick_3"><use x="203.688" xlink:href="#m40d37ec204" y="307.584" stroke="#000" stroke-width=".8" id="line2d_3"/><text x="203.688" y="322.182" font-family="DejaVu Sans" font-size="10" font-weight="400" text-anchor="middle" id="text_3">0.4</text></g><g id="xtick_4"><use x="268.632" xlink:href="#m40d37ec204" y="307.584" stroke="#000" stroke-width=".8" id="line2d_4"/><text x="268.632" y="322.182" font-family="DejaVu Sans" font-size="10" font-weight="400" text-anchor="middle" id="text_4">0.6</text></g><g id="xtick_5"><use x="333.576" xlink:href="#m40d37ec204" y="307.584" stroke="#000" stroke-width=".8" id="line2d_5"/><text x="333.576" y="322.182" font-family="DejaVu Sans" font-size="10" font-weight="400" text-anchor="middle" id="text_5">0.8</text></g><g id="xtick_6"><use x="398.52" xlink:href="#m40d37ec204" y="307.584" stroke="#000" stroke-width=".8" id="line2d_6"/><text x="398.52" y="322.182" font-family="DejaVu Sans" font-size="10" font-weight="400" text-anchor="middle" id="text_6">1.0</text></g><text x="236.16" y="335.861" font-family="DejaVu Sans" font-size="10" font-weight="400" text-anchor="middle" id="text_7">Probability</text></g><g id="matplotlib.axis_2"><g id="ytick_1"><g id="line2d_7"><defs><path d="M0 0h-3.5" id="md97aa09fba" stroke="#000" stroke-width=".8"/></defs><use x="57.6" xlink:href="#md97aa09fba" y="289.345" stroke="#000" stroke-width=".8"/></g><text x="50.6" y="293.144" font-family="DejaVu Sans" font-size="10" font-weight="400" text-anchor="end" id="text_8">2.5</text></g><g id="ytick_2"><use x="57.6" xlink:href="#md97aa09fba" y="259.351" stroke="#000" stroke-width=".8" id="line2d_8"/><text x="50.6" y="263.15" font-family="DejaVu Sans" font-size="10" font-weight="400" text-anchor="end" id="text_9">5.0</text></g><g id="ytick_3"><use x="57.6" xlink:href="#md97aa09fba" y="229.357" stroke="#000" stroke-width=".8" id="line2d_9"/><text x="50.6" y="233.156" font-family="DejaVu Sans" font-size="10" font-weight="400" text-anchor="end" id="text_10">7.5</text></g><g id="ytick_4"><use x="57.6" xlink:href="#md97aa09fba" y="199.363" stroke="#000" stroke-width=".8" id="line2d_10"/><text x="50.6" y="203.162" font-family="DejaVu Sans" font-size="10" font-weight="400" text-anchor="end" id="text_11">10.0</text></g><g id="ytick_5"><use x="57.6" xlink:href="#md97aa09fba" y="169.369" stroke="#000" stroke-width=".8" id="line2d_11"/><text x="50.6" y="173.168" font-family="DejaVu Sans" font-size="10" font-weight="400" text-anchor="end" id="text_12">12.5</text></g><g id="ytick_6"><use x="57.6" xlink:href="#md97aa09fba" y="139.375" stroke="#000" stroke-width=".8" id="line2d_12"/><text x="50.6" y="143.174" font-family="DejaVu Sans" font-size="10" font-weight="400" text-anchor="end" id="text_13">15.0</text></g><g id="ytick_7"><use x="57.6" xlink:href="#md97aa09fba" y="109.381" stroke="#000" stroke-width=".8" id="line2d_13"/><text x="50.6" y="113.18" font-family="DejaVu Sans" font-size="10" font-weight="400" text-anchor="end" id="text_14">17.5</text></g><g id="ytick_8"><use x="57.6" xlink:href="#md97aa09fba" y="79.387" stroke="#000" stroke-width=".8" id="line2d_14"/><text x="50.6" y="83.186" font-family="DejaVu Sans" font-size="10" font-weight="400" text-anchor="end" id="text_15">20.0</text></g><g id="ytick_9"><use x="57.6" xlink:href="#md97aa09fba" y="49.393" stroke="#000" stroke-width=".8" id="line2d_15"/><text x="50.6" y="53.192" font-family="DejaVu Sans" font-size="10" font-weight="400" text-anchor="end" id="text_16">22.5</text></g><text transform="rotate(-90 22.255 174.528)" x="22.255" y="174.528" font-family="DejaVu Sans" font-size="10" font-weight="400" text-anchor="middle" id="text_17">Average Bits Consumed Per Call</text></g><path clip-path="url(#p37ec78ef36)" d="M73.833 295.488l3.28-2.256 3.278 1.536 3.28.264 3.28-.216 3.278-2.351 3.28 1.655 3.28-.288 3.278-.887 3.28-.912 3.28.792 3.278-1.008h3.28l3.28-3.072 3.278 3.912 3.28-.096 3.28-3.792 3.278 1.32 3.28-2.951 3.28 3.167 3.279-1.992 3.279 1.32 3.28-7.702 3.279 7.294 3.279-2.255 3.28-.24 3.279.336 3.279-.288 3.28-2.616 3.279.264 3.279.072 3.28-1.751 3.279-.144 3.279 1.007 3.28-2.735 3.279.624 3.279-4.583 3.28 3.575 3.279.288 3.279-4.68 3.28.937 3.279-1.368 3.279 1.224 3.28-5.111 3.279 3.935 3.279-.624 3.28-1.704 3.279 2.664 3.279-3.335 3.28-5.423 3.279 2.975 3.279-.144 3.28-.96 3.279 1.392 3.279-4.103 3.28 1.152 3.279-1.848 3.279-1.392 3.28-.696 3.279-5.255 3.28 5.711 3.278-2.303 3.28-4.511 3.28 2.351 3.278-4.2 3.28-.167 3.28-2.184 3.278.792 3.28-1.607 3.28-3.792 3.278-1.295 3.28-.696 3.28-.816 3.278-1.944 3.28 1.56 3.28-5.231 3.278-2.064 3.28-3.743 3.28-.6 3.278-1.967 3.28-3.096 3.28 1.728 3.279-7.199 3.279-.935 3.28-2.568 3.279 1.224 3.279-7.079 3.28-.912 3.279-5.015 3.279-4.39 3.28-3.696 3.279 3.863 3.279-10.126 3.28-14.997 3.279-4.007 3.279 8.566 3.28-24.283 3.279-8.686 3.279-.576 3.28-95.957" fill="none" stroke="#1f77b4" stroke-linecap="square" stroke-width="1.5" id="line2d_16"/><path d="M57.6 307.584V41.472" fill="none" stroke="#000" stroke-linecap="square" stroke-width=".8" id="patch_3"/><path d="M414.72 307.584V41.472" fill="none" stroke="#000" stroke-linecap="square" stroke-width=".8" id="patch_4"/><path d="M57.6 307.584h357.12" fill="none" stroke="#000" stroke-linecap="square" stroke-width=".8" id="patch_5"/><path d="M57.6 41.472h357.12" fill="none" stroke="#000" stroke-linecap="square" stroke-width=".8" id="patch_6"/><text x="236.16" y="35.472" font-family="DejaVu Sans" font-size="12" font-weight="400" text-anchor="middle" id="text_18">Avg. Bits Consumed by 1 - log(1+x) (Alt. Series) Algorithm</text><g id="legend_1"><path d="M64.6 64.15h153.666q2 0 2-2V48.472q0-2-2-2H64.6q-2 0-2 2V62.15q0 2 2 2z" fill="#fff" opacity=".8" stroke="#ccc" id="patch_7"/><path d="M66.6 54.57h20" fill="none" stroke="#1f77b4" stroke-linecap="square" stroke-width="1.5" id="line2d_17"/><text x="94.6" y="58.07" font-family="DejaVu Sans" font-size="10" font-weight="400" id="text_19">1 - log(1+x) (Alt. Series)</text></g></g></g><defs><clipPath id="p37ec78ef36"><path d="M57.6 41.472h357.12v266.112H57.6z"/></clipPath></defs></svg>
